src/assets/images/sidebar/icon-add-sub.svg

<svg width="24" height="24" viewBox="0 0 24 24" fill="none" xmlns="http://www.w3.org/2000/svg">
<path d="M12 5C15.866 5 19 8.13401 19 12C19 15.866 15.866 19 12 19C8.13401 19 5 15.866 5 12C5 8.13401 8.13401 5 12 5ZM12 7C11.4477 7 11 7.44772 11 8V11H8C7.44772 11 7 11.4477 7 12C7 12.5523 7.44772 13 8 13H11V16C11 16.5523 11.4477 17 12 17C12.5523 17 13 16.5523 13 16V13H16C16.5523 13 17 12.5523 17 12C17 11.4477 16.5523 11 16 11H13V8C13 7.44772 12.5523 7 12 7Z" fill="#2D3149"/>
</svg>

<svg xmlns="http://www.w3.org/2000/svg" width="24" height="24" fill="none" viewBox="0 0 24 24"><path fill="#2d3149" d="M12 5a7 7 0 1 1 0 14 7 7 0 0 1 0-14m0 2a1 1 0 0 0-1 1v3H8a1 1 0 1 0 0 2h3v3a1 1 0 1 0 2 0v-3h3a1 1 0 1 0 0-2h-3V8a1 1 0 0 0-1-1"/></svg>
